X: 29386
T: Next To The Hearth
R: slip jig
M: 9/8
K: Dmajor
|:DAA FGA BFE|DAA FGA B2A|DAA FGA dcB|cBA FGA BFE:|
|:d2c dBA d2c|dfe d2c dBA|dfa afd gec|dBA FGA BFE:|

